X:258
T: ZWEI HERZEN IM LEBEN GAR SCHOEN SICH ERGEBEN
N: Z0256
O: Europa, Mitteleuropa, Deutschland, Schwaben
R: lyrisches Lied, Romanze
M: 3/8
L: 1/16
K: G
GA | B2B2c2 | edd2
cB | dcc2A2 | cBB2
Bd | dcc2A2 | cBB2
Bd | dcc2A2 | cBB2
GA | BBB2c2 | d4
cB | dcc2A2 | G4

@@@ Tune index: 10016
